X: 40010
T: Three Merry Sisters Of Fate, The
R: reel
M: 4/4
K: Dmajor
|d2 fd efde|fB ~B2 fece|d2 fd efdf|eA ~A2 eAce|
d2 fd efde|fB ~B2 fece|defd efdf|eA ~A2 eAce|
|:a2 ga faea|fB ~B2 fece|a2 ga fgaf|1 eA ~A2 eAce:|2 edef =g2 fe||

